flaticon/productivity/file-3.svg

<svg xmlns="http://www.w3.org/2000/svg" width="32" height="32" viewBox="0 0 24 24">
    <path d="M 21.488281 5.109375 L 16.523438 0.148438 C 16.519531 0.144531 16.398438 0 16.152344 0 L 2.863281 0 C 2.589844 0 2.363281 0.222656 2.363281 0.5 L 2.363281 23.5 C 2.363281 23.777344 2.589844 24 2.863281 24 L 21.136719 24 C 21.410156 24 21.636719 23.777344 21.636719 23.5 L 21.636719 5.464844 C 21.636719 5.371094 21.613281 5.238281 21.488281 5.109375 Z M 19.933594 4.964844 L 16.667969 4.964844 L 16.667969 1.703125 Z M 20.636719 23.003906 L 3.363281 23.003906 L 3.363281 0.996094 L 15.671875 0.996094 L 15.671875 5.464844 C 15.671875 5.738281 15.894531 5.964844 16.171875 5.964844 L 20.636719 5.964844 Z M 20.636719 23.003906"/>
    <path d="M5.730469 13.304688L9.246094 14.960938 9.246094 13.890625 6.925781 12.789062 9.246094 11.71875 9.246094 10.65625 5.730469 12.3125zM9.976562 16.46875L10.996094 16.46875 14.03125 9.839844 13.003906 9.839844zM14.753906 11.71875L17.074219 12.789062 14.753906 13.890625 14.753906 14.960938 18.269531 13.304688 18.269531 12.3125 14.753906 10.65625zM14.753906 11.71875"/>
</svg>

<svg xmlns="http://www.w3.org/2000/svg" width="32" height="32" viewBox="0 0 24 24">
    <path d="M21.488 5.11L16.523.147C16.52.145 16.398 0 16.153 0H2.862c-.273 0-.5.223-.5.5v23c0 .277.227.5.5.5h18.274c.273 0 .5-.223.5-.5V5.465a.494.494 0 0 0-.149-.356zm-1.554-.145h-3.266V1.703zm.703 18.039H3.363V.996h12.309v4.469c0 .273.223.5.5.5h4.465zm0 0"/>
    <path d="M5.73 13.305l3.516 1.656v-1.07l-2.32-1.102 2.32-1.07v-1.063L5.73 12.312zm0 0M9.977 16.469h1.02l3.034-6.63h-1.027zm0 0M14.754 11.719l2.32 1.07-2.32 1.102v1.07l3.516-1.656v-.992l-3.516-1.657zm0 0"/>
</svg>
